cartflows/admin-core/assets/images/plugins/suretriggers/trusted-brands/SureCart_logo.svg

<svg width="129" height="24" viewBox="0 0 129 24" fill="none" xmlns="http://www.w3.org/2000/svg">
<g clip-path="url(#clip0_4393_128308)">
<path fill-rule="evenodd" clip-rule="evenodd" d="M12.3154 23.9389C18.8408 23.9389 24.1307 18.58 24.1307 11.9695C24.1307 5.35891 18.8408 0 12.3154 0C5.78993 0 0.5 5.35891 0.5 11.9695C0.5 18.58 5.78993 23.9389 12.3154 23.9389ZM12.3663 5.98472C11.4175 5.98472 10.1046 6.53435 9.43377 7.21236L7.61176 9.05382H16.6934L19.7302 5.98472H12.3663ZM15.1817 16.7265C14.5108 17.4045 13.1979 17.9542 12.2492 17.9542H4.88535L7.92204 14.8851H17.0037L15.1817 16.7265ZM18.1333 10.5884H6.0967L5.52815 11.1638C4.18187 12.3915 4.58115 13.3505 6.46656 13.3505H18.5357L19.1045 12.7751C20.4377 11.5547 20.0187 10.5884 18.1333 10.5884Z" fill="#4B5563"/>
<path fill-rule="evenodd" clip-rule="evenodd" d="M90.9227 15.6336C89.9858 17.3133 88.2915 18.9527 85.3811 18.9527C81.3744 18.9527 78.2846 16.1193 78.2846 11.9705C78.2846 7.80139 81.3744 4.98828 85.3811 4.98828C88.2915 4.98828 89.9858 6.58711 90.9227 8.28712L88.4907 9.5014C87.9325 8.40854 86.7366 7.53831 85.3811 7.53831C82.9492 7.53831 81.1949 9.42046 81.1949 11.9705C81.1949 14.5205 82.9492 16.4026 85.3811 16.4026C86.7366 16.4026 87.9325 15.5324 88.4907 14.4395L90.9227 15.6336ZM99.7472 5.21091L104.87 18.7098H101.661L100.824 16.4229H95.1225L94.2853 18.7098H91.0759L96.199 5.21091H99.7472ZM95.8999 13.8931H100.046L97.9731 8.08473L95.8999 13.8931ZM116.882 18.7098L113.872 13.5693C115.307 13.2252 116.803 11.93 116.803 9.56213C116.803 7.05259 115.088 5.21091 112.317 5.21091H106.098V18.7098H108.929V13.9133H111.002L113.613 18.7098H116.882ZM111.919 11.3836H108.929V7.74068H111.919C113.035 7.74068 113.892 8.42878 113.892 9.54189C113.892 10.6955 113.035 11.3836 111.919 11.3836ZM124.633 7.74068V18.7098H121.782V7.74068H117.895V5.21091H128.5V7.74068H124.633ZM31.0567 15.3641L30.0385 16.856C31.361 18.2538 33.1199 18.9527 35.3151 18.9527C36.9374 18.9527 38.1937 18.5763 39.0842 17.8237C39.9835 17.0621 40.4331 16.0988 40.4331 14.934C40.4331 14.2352 40.2833 13.6303 39.9835 13.1196C39.6839 12.6089 39.2958 12.2191 38.8197 11.9503C38.3525 11.6726 37.8279 11.4396 37.2461 11.2514C36.6729 11.0633 36.0954 10.9065 35.5135 10.781C34.9405 10.6466 34.4159 10.5077 33.9397 10.3644C33.4725 10.212 33.089 10.006 32.7892 9.74612C32.4894 9.47732 32.3396 9.15028 32.3396 8.76498C32.3396 8.16466 32.6041 7.66737 33.133 7.27313C33.6621 6.86992 34.3629 6.66832 35.2359 6.66832C36.0646 6.66832 36.8184 6.82513 37.4973 7.13873C38.185 7.44338 38.7316 7.84658 39.1371 8.34835L40.076 6.92368C38.8417 5.63342 37.2283 4.9883 35.2359 4.9883C33.7282 4.9883 32.5423 5.35565 31.6783 6.09038C30.8144 6.81617 30.3823 7.72561 30.3823 8.81875C30.3823 9.48181 30.5321 10.0553 30.8319 10.5391C31.1317 11.014 31.5196 11.3813 31.9957 11.6412C32.4719 11.901 32.9965 12.1206 33.5695 12.2998C34.1514 12.479 34.7288 12.6358 35.302 12.7702C35.875 12.9046 36.3997 13.0524 36.8757 13.2137C37.3517 13.375 37.7396 13.6035 38.0395 13.8991C38.3393 14.1948 38.4891 14.5577 38.4891 14.9878C38.4891 15.6688 38.2114 16.2198 37.656 16.6409C37.1094 17.0621 36.3466 17.2726 35.368 17.2726C34.5129 17.2726 33.6973 17.0889 32.9215 16.7216C32.1457 16.3542 31.5241 15.9017 31.0567 15.3641ZM42.656 5.3243V14.7056C42.656 17.5369 44.0445 18.9527 46.8219 18.9527C47.7388 18.9527 48.6072 18.7421 49.4272 18.321C50.247 17.8998 50.9303 17.3756 51.4771 16.7485V18.6167H53.5136V5.3243H51.4771V15.0953C51.0803 15.6598 50.5293 16.1347 49.8238 16.52C49.1185 16.9053 48.3868 17.0979 47.6285 17.0979C46.6676 17.0979 45.9357 16.8739 45.4333 16.4259C44.9307 15.9689 44.6794 15.1849 44.6794 14.0739V5.3243H42.656ZM56.4902 18.6167V5.3243H58.5137V7.44785C59.078 6.71312 59.7347 6.12623 60.4841 5.68718C61.2335 5.23918 62.0315 5.01518 62.8779 5.01518V7.13873C62.5604 7.10289 62.3003 7.08497 62.0977 7.08497C61.4716 7.08497 60.7928 7.30449 60.0609 7.74353C59.3292 8.17362 58.8135 8.66194 58.5137 9.20852V18.6167H56.4902ZM64.3998 8.45587C63.8532 9.51316 63.5798 10.678 63.5798 11.9503C63.5798 14.0201 64.2058 15.7046 65.4577 17.0038C66.7097 18.303 68.3143 18.9527 70.2716 18.9527C72.3523 18.9527 74.0848 18.2628 75.469 16.8829L74.5036 15.5389C73.9746 16.0854 73.353 16.5065 72.6388 16.8022C71.9335 17.0979 71.1974 17.2458 70.4303 17.2458C69.0726 17.2458 67.9705 16.8067 67.1241 15.9286C66.2865 15.0505 65.8281 13.9574 65.7486 12.6492H76.3154V12.125C76.3154 10.781 76.0686 9.57587 75.5748 8.50962C75.0899 7.43442 74.3669 6.57872 73.406 5.94255C72.4449 5.30638 71.3208 4.9883 70.0335 4.9883C68.808 4.9883 67.7015 5.3019 66.7142 5.92912C65.7267 6.54735 64.9552 7.38961 64.3998 8.45587ZM74.3052 11.1036H65.7222C65.7486 10.5839 65.8589 10.0732 66.0529 9.5714C66.2468 9.06067 66.5114 8.59027 66.8464 8.16018C67.1902 7.72114 67.6354 7.36722 68.1822 7.0984C68.7288 6.8296 69.3371 6.6952 70.0071 6.6952C70.7212 6.6952 71.3605 6.83409 71.9247 7.11185C72.489 7.38065 72.9386 7.73457 73.2737 8.17362C73.6086 8.61266 73.86 9.08308 74.0274 9.58483C74.2038 10.0866 74.2963 10.5929 74.3052 11.1036Z" fill="#4B5563"/>
</g>
<defs>
<clipPath id="clip0_4393_128308">
<rect width="128" height="24" fill="white" transform="translate(0.5)"/>
</clipPath>
</defs>
</svg>

<svg width="129" height="24" fill="none" xmlns="http://www.w3.org/2000/svg"><g clip-path="url(#a)" fill-rule="evenodd" clip-rule="evenodd" fill="#4B5563"><path d="M12.315 23.939c6.526 0 11.816-5.359 11.816-11.97C24.13 5.36 18.84 0 12.315 0 5.79 0 .5 5.359.5 11.97c0 6.61 5.29 11.969 11.815 11.969Zm.051-17.954c-.948 0-2.261.55-2.932 1.227L7.612 9.054h9.081l3.037-3.07h-7.364Zm2.816 10.742c-.671.677-1.984 1.227-2.933 1.227H4.885l3.037-3.069h9.082l-1.822 1.842Zm2.951-6.139H6.097l-.569.576c-1.346 1.228-.947 2.187.939 2.187h12.069l.569-.576c1.333-1.22.914-2.187-.972-2.187ZM90.923 15.634c-.937 1.68-2.632 3.319-5.542 3.319-4.007 0-7.096-2.834-7.096-6.982 0-4.17 3.09-6.983 7.096-6.983 2.91 0 4.605 1.6 5.542 3.3L88.49 9.5c-.558-1.092-1.754-1.963-3.11-1.963-2.432 0-4.186 1.882-4.186 4.432 0 2.55 1.754 4.433 4.186 4.433 1.356 0 2.552-.87 3.11-1.963l2.432 1.194ZM99.747 5.21l5.123 13.499h-3.209l-.837-2.287h-5.701l-.838 2.287h-3.21L96.2 5.21h3.548ZM95.9 13.893h4.146l-2.073-5.808-2.073 5.808Zm20.982 4.817-3.01-5.14c1.435-.345 2.931-1.64 2.931-4.008 0-2.51-1.715-4.351-4.486-4.351h-6.219V18.71h2.831v-4.797h2.073l2.611 4.797h3.269Zm-4.963-7.326h-2.99V7.74h2.99c1.116 0 1.973.688 1.973 1.8 0 1.154-.857 1.843-1.973 1.843Zm12.714-3.643V18.71h-2.851V7.74h-3.887V5.21H128.5v2.53h-3.867Zm-93.576 7.623-1.018 1.492c1.322 1.398 3.08 2.097 5.276 2.097 1.622 0 2.879-.377 3.77-1.13.898-.76 1.348-1.724 1.348-2.889 0-.699-.15-1.304-.45-1.814-.3-.511-.687-.9-1.163-1.17a7.719 7.719 0 0 0-1.574-.699 17.15 17.15 0 0 0-1.733-.47 26.43 26.43 0 0 1-1.573-.417c-.468-.152-.851-.358-1.15-.618a1.27 1.27 0 0 1-.45-.981c0-.6.264-1.098.793-1.492.53-.403 1.23-.605 2.103-.605.829 0 1.582.157 2.261.47.688.305 1.235.709 1.64 1.21l.939-1.424c-1.234-1.29-2.848-1.936-4.84-1.936-1.508 0-2.694.368-3.558 1.102-.864.726-1.296 1.636-1.296 2.729 0 .663.15 1.236.45 1.72.3.475.688.842 1.164 1.102.476.26 1 .48 1.573.659.582.179 1.16.336 1.733.47.573.135 1.098.282 1.574.444.476.161.864.39 1.163.685.3.296.45.659.45 1.089 0 .68-.278 1.232-.833 1.653-.547.421-1.31.632-2.288.632a5.65 5.65 0 0 1-2.447-.551c-.775-.368-1.397-.82-1.864-1.358Zm11.599-10.04v9.382c0 2.83 1.389 4.247 4.166 4.247.917 0 1.785-.21 2.605-.632.82-.421 1.503-.945 2.05-1.573v1.869h2.037V5.324h-2.037v9.771c-.397.565-.948 1.04-1.653 1.425a4.52 4.52 0 0 1-2.195.578c-.961 0-1.693-.224-2.196-.672-.502-.457-.754-1.241-.754-2.352v-8.75h-2.023ZM56.49 18.617V5.324h2.024v2.124a6.832 6.832 0 0 1 1.97-1.76 4.59 4.59 0 0 1 2.394-.673V7.14a7.232 7.232 0 0 0-.78-.054c-.626 0-1.305.22-2.037.659-.732.43-1.248.918-1.547 1.465v9.408H56.49ZM64.4 8.456c-.547 1.057-.82 2.222-.82 3.494 0 2.07.626 3.755 1.878 5.054 1.252 1.299 2.856 1.949 4.814 1.949 2.08 0 3.813-.69 5.197-2.07l-.965-1.344a5.487 5.487 0 0 1-1.865 1.263 5.656 5.656 0 0 1-2.209.444c-1.357 0-2.46-.44-3.306-1.317-.837-.879-1.296-1.972-1.375-3.28h10.566v-.524c0-1.344-.246-2.55-.74-3.615a5.94 5.94 0 0 0-2.169-2.567c-.961-.637-2.085-.955-3.373-.955-1.225 0-2.332.314-3.319.941A6.416 6.416 0 0 0 64.4 8.456Zm9.905 2.648h-8.583c.027-.52.137-1.03.33-1.533.195-.51.46-.98.794-1.41a3.786 3.786 0 0 1 1.336-1.063 4.08 4.08 0 0 1 1.825-.403c.714 0 1.353.14 1.918.417.564.269 1.014.623 1.349 1.062.335.439.586.91.753 1.41.177.503.27 1.009.278 1.52Z"/></g><defs><clipPath id="a"><path fill="#fff" transform="translate(.5)" d="M0 0h128v24H0z"/></clipPath></defs></svg>
